common/media/svg/icons/globe.svg

<?xml version="1.0" encoding="UTF-8" standalone="no"?>
<svg
   xmlns:dc="http://purl.org/dc/elements/1.1/"
   xmlns:cc="http://creativecommons.org/ns#"
   xmlns:rdf="http://www.w3.org/1999/02/22-rdf-syntax-ns#"
   xmlns:svg="http://www.w3.org/2000/svg"
   xmlns="http://www.w3.org/2000/svg"
   xmlns:sodipodi="http://sodipodi.sourceforge.net/DTD/sodipodi-0.dtd"
   xmlns:inkscape="http://www.inkscape.org/namespaces/inkscape"
   version="1.1"
   x="0px"
   y="0px"
   width="32px"
   height="32px"
   viewBox="0 0 32 32"
   enable-background="new 0 0 32 32"
   xml:space="preserve"
   id="svg2"
   inkscape:version="0.48.4 r9939"
   sodipodi:docname="globe.svg"><defs
     id="defs3284" /><sodipodi:namedview
     pagecolor="#ffffff"
     bordercolor="#666666"
     borderopacity="1"
     objecttolerance="10"
     gridtolerance="10"
     guidetolerance="10"
     inkscape:pageopacity="0"
     inkscape:pageshadow="2"
     inkscape:window-width="640"
     inkscape:window-height="480"
     id="namedview3282"
     showgrid="false"
     inkscape:zoom="7.375"
     inkscape:cx="16"
     inkscape:cy="16"
     inkscape:window-x="53"
     inkscape:window-y="24"
     inkscape:window-maximized="0"
     inkscape:current-layer="svg2" /><metadata
     id="metadata3274"><rdf:RDF><cc:Work
         rdf:about=""><dc:format>image/svg+xml</dc:format><dc:type
           rdf:resource="http://purl.org/dc/dcmitype/StillImage" /><dc:title>PICOL Icon</dc:title><dc:date>2009-03-15</dc:date><dc:creator><cc:Agent><dc:title>Melih Bilgil</dc:title></cc:Agent></dc:creator><dc:rights><cc:Agent><dc:title>Creative Commons BY-SA</dc:title></cc:Agent></dc:rights><dc:publisher><cc:Agent><dc:title>PICOL - Pictorial Communication Language</dc:title></cc:Agent></dc:publisher><dc:identifier>http://blog.picol.org</dc:identifier><dc:source>http://blog.picol.org</dc:source><dc:language>en</dc:language><dc:subject><rdf:Bag><rdf:li>PICOL</rdf:li><rdf:li>icon</rdf:li><rdf:li>icons</rdf:li><rdf:li>sign</rdf:li><rdf:li>GUI</rdf:li><rdf:li>vector</rdf:li><rdf:li>interface</rdf:li></rdf:Bag></dc:subject><dc:description>This is one icon out of all PICOL icons</dc:description><dc:contributor><cc:Agent><dc:title>Melih Bilgil (www.lonja.de), Christopher Adjei (www.boffer.net)</dc:title></cc:Agent></dc:contributor><cc:license
           rdf:resource="http://creativecommons.org/licenses/by-sa/3.0/" /></cc:Work><cc:License
         rdf:about="http://creativecommons.org/licenses/by-sa/3.0/"><cc:permits
           rdf:resource="http://creativecommons.org/ns#Reproduction" /><cc:permits
           rdf:resource="http://creativecommons.org/ns#Distribution" /><cc:requires
           rdf:resource="http://creativecommons.org/ns#Notice" /><cc:requires
           rdf:resource="http://creativecommons.org/ns#Attribution" /><cc:permits
           rdf:resource="http://creativecommons.org/ns#DerivativeWorks" /><cc:requires
           rdf:resource="http://creativecommons.org/ns#ShareAlike" /></cc:License></rdf:RDF></metadata><g
     id="background"><rect
       x="0"
       y="0"
       fill="none"
       width="32"
       height="32"
       id="rect3277" /></g><path
     id="path3280"
     d="M 15.999,0 C 7.164,0.002 0.002,7.164 0,15.999 0.002,24.837 7.164,31.999 15.999,32 24.837,31.998 31.999,24.837 32,15.999 31.999,7.164 24.837,0.002 15.999,0 z M 2.052,17.001 H 7.04 C 7.111,18.86 7.366,20.528 7.76,22 H 3.373 C 2.642,20.466 2.182,18.783 2.052,17.001 z M 17,8.002 v -5.79 c 0.941,0.705 2.991,2.501 4.433,5.791 H 17 z m 5.169,1.999 c 0.428,1.437 0.714,3.105 0.795,5 H 17 v -5 h 5.169 z M 14.546,2.565 C 14.72,2.421 14.868,2.307 15,2.209 V 8.002 H 10.562 C 11.09,6.799 11.699,5.794 12.305,4.969 13.125,3.855 13.943,3.068 14.546,2.565 z M 15,10.001 v 5 H 9.04 c 0.081,-1.904 0.374,-3.563 0.805,-5 H 15 z m -7.96,5 H 2.052 c 0.129,-1.781 0.588,-3.466 1.319,-5 H 7.76 c -0.394,1.473 -0.649,3.142 -0.72,5 z m 1.995,2 H 15 V 22 H 9.83 C 9.402,20.564 9.116,18.896 9.035,17.001 z m 5.965,7 V 29.79 C 14.06,29.086 12.009,27.291 10.567,24.001 H 15 z m 2.453,5.435 C 17.28,29.58 17.131,29.693 17,29.792 v -5.79 h 4.437 c -0.527,1.202 -1.137,2.206 -1.743,3.031 -0.819,1.112 -1.638,1.901 -2.241,2.403 z M 17,22 v -4.999 h 5.959 C 22.878,18.904 22.585,20.563 22.155,22 H 17 z m 7.96,-4.999 h 4.986 C 29.817,18.782 29.357,20.466 28.626,22 H 24.24 c 0.393,-1.472 0.648,-3.14 0.72,-4.999 z m 0,-2 c -0.072,-1.859 -0.326,-3.527 -0.721,-5 h 4.388 c 0.731,1.534 1.191,3.219 1.319,5 H 24.96 z M 27.473,8.002 H 23.584 C 22.703,5.722 21.547,3.99 20.468,2.747 c 2.864,0.967 5.309,2.827 7.005,5.255 z M 11.531,2.747 C 10.453,3.991 9.296,5.723 8.416,8.002 H 4.527 C 6.224,5.574 8.669,3.714 11.531,2.747 z M 4.53,24.001 h 3.887 c 0.879,2.276 2.034,4.007 3.112,5.25 -2.86,-0.966 -5.303,-2.824 -6.999,-5.25 z m 15.94,5.25 c 1.078,-1.243 2.233,-2.974 3.113,-5.25 h 3.887 c -1.696,2.426 -4.139,4.284 -7,5.25 z" /></svg>

<?xml version="1.0" encoding="UTF-8" standalone="no"?>
<svg
   xmlns:dc="http://purl.org/dc/elements/1.1/"
   xmlns:cc="http://creativecommons.org/ns#"
   xmlns:rdf="http://www.w3.org/1999/02/22-rdf-syntax-ns#"
   xmlns:svg="http://www.w3.org/2000/svg"
   xmlns="http://www.w3.org/2000/svg"
   xmlns:sodipodi="http://sodipodi.sourceforge.net/DTD/sodipodi-0.dtd"
   xmlns:inkscape="http://www.inkscape.org/namespaces/inkscape"
   version="1.1"
   x="0px"
   y="0px"
   width="32px"
   height="32px"
   viewBox="0 0 32 32"
   enable-background="new 0 0 32 32"
   xml:space="preserve"
   id="svg2"
   >

<metadata><rdf:RDF>

   <cc:Work rdf:about="">
   <dc:format>image/svg+xml</dc:format>
   <dc:type rdf:resource="http://purl.org/dc/dcmitype/StillImage" />
   <dc:title>PICOL Icon</dc:title>
   <dc:date>2009-03-15</dc:date>
   <dc:creator><cc:Agent><dc:title>Melih Bilgil</dc:title></cc:Agent></dc:creator>
   <dc:rights><cc:Agent><dc:title>Creative Commons BY-SA</dc:title></cc:Agent></dc:rights>
   <dc:publisher><cc:Agent><dc:title>PICOL - Pictorial Communication Language</dc:title></cc:Agent></dc:publisher>
   <dc:identifier>http://blog.picol.org</dc:identifier>
   <dc:source>http://blog.picol.org</dc:source>
   <dc:language>en</dc:language>
   <dc:subject>
     <rdf:Bag>
       <rdf:li>PICOL</rdf:li>
       <rdf:li>icon</rdf:li>
       <rdf:li>icons</rdf:li>
       <rdf:li>sign</rdf:li>
       <rdf:li>GUI</rdf:li>
       <rdf:li>vector</rdf:li>
       <rdf:li>interface</rdf:li>
     </rdf:Bag>
   </dc:subject>
   <dc:description>This is one icon out of all PICOL icons</dc:description>
   <dc:contributor>
       <cc:Agent><dc:title>Melih Bilgil (www.lonja.de), Christopher Adjei (www.boffer.net)</dc:title></cc:Agent></dc:contributor>
   <cc:license rdf:resource="http://creativecommons.org/licenses/by-sa/3.0/" /></cc:Work>
   <cc:License rdf:about="http://creativecommons.org/licenses/by-sa/3.0/">
       <cc:permits rdf:resource="http://creativecommons.org/ns#Reproduction" />
       <cc:permits rdf:resource="http://creativecommons.org/ns#Distribution" />
       <cc:requires rdf:resource="http://creativecommons.org/ns#Notice" />
       <cc:requires rdf:resource="http://creativecommons.org/ns#Attribution" />
       <cc:permits rdf:resource="http://creativecommons.org/ns#DerivativeWorks" />
       <cc:requires rdf:resource="http://creativecommons.org/ns#ShareAlike" /></cc:License>

   </rdf:RDF>
</metadata>

<g id="background">
	<rect x="0" y="0" fill="none" width="32" height="32"/>
</g>
<g id="earth">
	<path d="M15.999,0C7.164,0.002,0.002,7.164,0,15.999c0.002,8.838,7.164,16,15.999,16.001c8.838-0.002,16-7.163,16.001-16.001
		C31.999,7.164,24.837,0.002,15.999,0z M2.052,17.001H7.04C7.111,18.86,7.366,20.528,7.76,22H3.373
		C2.642,20.466,2.182,18.783,2.052,17.001z M17,8.002V2.212c0.941,0.705,2.991,2.501,4.433,5.791H17z M22.169,10.001
		c0.428,1.437,0.714,3.105,0.795,5H17v-5H22.169z M14.546,2.565C14.72,2.421,14.868,2.307,15,2.209v5.793h-4.438
		c0.528-1.203,1.137-2.208,1.743-3.033C13.125,3.855,13.943,3.068,14.546,2.565z M15,10.001v5H9.04c0.081-1.904,0.374-3.563,0.805-5
		H15z M7.04,15.001H2.052c0.129-1.781,0.588-3.466,1.319-5h4.389C7.366,11.474,7.111,13.143,7.04,15.001z M9.035,17.001H15V22H9.83
		C9.402,20.564,9.116,18.896,9.035,17.001z M15,24.001v5.789c-0.94-0.704-2.991-2.499-4.433-5.789H15z M17.453,29.436
		C17.28,29.58,17.131,29.693,17,29.792v-5.79h4.437c-0.527,1.202-1.137,2.206-1.743,3.031
		C18.875,28.145,18.056,28.934,17.453,29.436z M17,22v-4.999h5.959c-0.081,1.903-0.374,3.562-0.804,4.999H17z M24.96,17.001h4.986
		c-0.129,1.781-0.589,3.465-1.32,4.999H24.24C24.633,20.528,24.888,18.86,24.96,17.001z M24.96,15.001
		c-0.072-1.859-0.326-3.527-0.721-5h4.388c0.731,1.534,1.191,3.219,1.319,5H24.96z M27.473,8.002h-3.889
		c-0.881-2.28-2.037-4.012-3.116-5.255C23.332,3.714,25.777,5.574,27.473,8.002z M11.531,2.747
		c-1.078,1.244-2.235,2.976-3.115,5.255H4.527C6.224,5.574,8.669,3.714,11.531,2.747z M4.53,24.001h3.887
		c0.879,2.276,2.034,4.007,3.112,5.25C8.669,28.285,6.226,26.427,4.53,24.001z M20.47,29.251c1.078-1.243,2.233-2.974,3.113-5.25
		h3.887C25.774,26.427,23.331,28.285,20.47,29.251z"/>
</g>
</svg>
